X:1
T:Byrne's
R:hornpipe
M:4/4
L:1/8
K:D
AG|:(3FEF (3GFG AFDf|dA (3Bcd ecAg|fdge fded|cA (3Bcd ecAG|
|(3FEF (3GFG AFDf|dA (3Bcd ecAg|fdge fdec|1 Addc d2AG:|2 Addc dcdf|]
|:eA (3ABA efge|afdg bgeg|afdf (3gfe af|gefd ecAG|
|(3FEF (3GFG AFDf|dA (3Bcd ecAg|fdge fdec|1 Addc dcdf:|2 Addc d2AG|]